src/lib/packages/icons/src/assets/line/book-open-reader.svg

<svg width="24" height="24" viewBox="0 0 24 24" fill="none" xmlns="http://www.w3.org/2000/svg">
<path d="M21.3831 9.61499C21.1471 9.37999 20.833 9.25 20.5 9.25C20.499 9.25 20.498 9.25 20.498 9.25H20.4971C18.5191 9.254 16.5801 9.30905 14.6011 9.93005C13.4881 10.2791 12.59 11.006 12 11.934C11.411 11.006 10.5119 10.2791 9.39893 9.93005C7.41993 9.30905 5.47993 9.254 3.50293 9.25H3.50195C3.50195 9.25 3.501 9.25 3.5 9.25C3.167 9.25 2.85394 9.37999 2.61694 9.61499C2.38094 9.85199 2.25 10.166 2.25 10.501V18.501C2.25 19.187 2.80601 19.748 3.48901 19.751C7.62201 19.769 10.306 20.368 11.469 21.53C11.476 21.537 11.4849 21.539 11.4919 21.546C11.5559 21.606 11.6279 21.658 11.7119 21.693H11.7129C11.8039 21.73 11.901 21.75 11.999 21.75C12.097 21.75 12.1939 21.73 12.2849 21.693H12.2859C12.3699 21.658 12.4421 21.606 12.5061 21.546C12.5131 21.539 12.5231 21.537 12.5291 21.53C13.6921 20.367 16.377 19.769 20.51 19.751C21.193 19.748 21.748 19.187 21.748 18.501V10.501C21.75 10.167 21.6191 9.85199 21.3831 9.61499ZM3.75 10.751C5.521 10.759 7.25195 10.829 8.94995 11.361C10.326 11.793 11.25 13.044 11.25 14.474V19.553C9.165 18.465 6.116 18.274 3.75 18.252V10.751ZM20.25 18.252C17.884 18.273 14.835 18.465 12.75 19.553V14.474C12.75 13.044 13.674 11.793 15.05 11.361C16.748 10.828 18.48 10.759 20.25 10.751V18.252ZM12 8.75C13.792 8.75 15.25 7.292 15.25 5.5C15.25 3.708 13.792 2.25 12 2.25C10.208 2.25 8.75 3.708 8.75 5.5C8.75 7.292 10.208 8.75 12 8.75ZM12 3.75C12.965 3.75 13.75 4.535 13.75 5.5C13.75 6.465 12.965 7.25 12 7.25C11.035 7.25 10.25 6.465 10.25 5.5C10.25 4.535 11.035 3.75 12 3.75Z" fill="currentColor"/>
</svg>

<svg xmlns="http://www.w3.org/2000/svg" width="24" height="24" fill="none"><path fill="currentColor" d="M21.383 9.615a1.245 1.245 0 0 0-.883-.365h-.002c-1.979.004-3.918.059-5.897.68A4.765 4.765 0 0 0 12 11.934 4.762 4.762 0 0 0 9.399 9.93c-1.98-.621-3.92-.676-5.896-.68H3.5a1.246 1.246 0 0 0-1.25 1.251v8a1.25 1.25 0 0 0 1.239 1.25c4.133.018 6.817.617 7.98 1.779.007.007.016.009.023.016.064.06.136.112.22.147a.76.76 0 0 0 .573 0 .738.738 0 0 0 .221-.147c.007-.007.017-.009.023-.016 1.163-1.163 3.848-1.761 7.981-1.779a1.25 1.25 0 0 0 1.238-1.25v-8a1.239 1.239 0 0 0-.365-.886ZM3.75 10.751c1.771.008 3.502.078 5.2.61a3.257 3.257 0 0 1 2.3 3.113v5.079c-2.085-1.088-5.134-1.279-7.5-1.301v-7.501Zm16.5 7.501c-2.366.021-5.415.213-7.5 1.301v-5.079c0-1.43.924-2.681 2.3-3.113 1.698-.533 3.43-.602 5.2-.61v7.501ZM12 8.75a3.254 3.254 0 0 0 3.25-3.25A3.254 3.254 0 0 0 12 2.25 3.254 3.254 0 0 0 8.75 5.5 3.254 3.254 0 0 0 12 8.75Zm0-5c.965 0 1.75.785 1.75 1.75S12.965 7.25 12 7.25s-1.75-.785-1.75-1.75.785-1.75 1.75-1.75Z"/></svg>
